//UWU
//UWV

R = 0.2..0.5

startshape A ( R ) [ h 257.8 sat 0.2572 b 0.4506 ]

//CF::Background = [ b -0.75 h 258 sat 0.2]
CF::MinimumSize = 1

shape A ( number n )
{    
    loop (20*n) [ r (60*n) ]
    {
        SQUARE [ x 100 ]
    }
    
    A ( n ) [ r n ]
}
rule 0.01
{
    SQUARE [[ x 97.5 s 6 1 ]]
        
    B [ s 0.95 sat -0.363 b -0.0698]
}

shape B
rule
{
    A ( R  ) []
}
rule
{
    A ( -1*R  ) []
}
rule 0.01
{
    A ( R  ) []
    A ( -1*R  ) []
}